X:1
T:Alt paa den vilde Hede
T:(Salmer og Aandelige Sange, no.2)
T:Carl Nielsen (FS83/2)
T:N.F.S. Grundtvig
T:Alt paa den vilde Hede (Salmer og Aandelige Sange, no.2)
T:Copyright (c) 2006 by Choral Public Domain Library (http://www.cpdl.org). Edition may be freely distributed, duplicated, performed or recorded.
T:Copyright (c) 2006 by Choral Public Domain Library (http://www.cpdl.org). Edition may be freely distributed, duplicated, performed or recorded.
C:Carl Nielsen (FS83/2)
Z:N.F.S. Grundtvig
Z:Copyright (c) 2006 by Choral Public Domain Library (http://www.cpdl.org).
Z:Edition may be freely distributed, duplicated, performed or recorded.
%%score [ 1 2 3 4 ]
L:1/8
M:4/4
K:G
V:1 treble nm="S." snm="S."
V:2 treble nm="A." snm="A."
V:3 treble-8 transpose=-12 nm="T." snm="T."
V:4 bass nm="B." snm="B."
V:1
 B,2 | E2 E2 B2 B2 | G4 E2 F2 | G2 G2 d2 d2 | B4 z2 e2 | d2 A2 c2 d2 | B4 A2 B2 | G2 E2 F2 G2 | %8
w: Alt|paa den vil- de|He- de der|gik Ma- ri- as|Søn, da|mød- te ham den|le- de, som|Mor- gen- stjær- nen|
 !fermata!E6 |] %9
w: skøn.|
V:2
 B,2 | B,2 B,2 B,2 B,2 | B,4 ^C2 ^D2 | E2 E2 A2 A2 | D4 z2 C2 | D2 D2 E2 D2 | D4 D2 D2 | %7
w: Alt|paa den vil- de|He- de der|gik Ma- ri- as|Søn, da|mød- te ham den|le- de, som|
 B,2 E2 E2 D2 | (D2 C2 !fermata!B,2) |] %9
w: Mor- gen- stjær- nen|skøn. _ _|
V:3
 B2 | G2 G2 F2 F2 | G4 A2 A2 | B2 B2 A2 A2 | G4 z2 G2 | G2 F2 A2 A2 | (A2 G2) F2 F2 | G2 G2 c2 B2 | %8
w: Alt|paa den vil- de|He- de der|gik Ma- ri- as|Søn, da|mød- te ham den|le- * de, som|Mor- gen- stjær- nen|
 (G2 A2 !fermata!G2) |] %9
w: skøn. _ _|
V:4
 B,2 | E,2 E,2 ^D,2 D,2 | E,4 A,2 F,2 | E,2 E,2 F,2 F,2 | G,4 z2 C,2 | %5
w: Alt|paa den vil- de|He- de der|gik Ma- ri- as|Søn, da|
"^1.4.5.9.11." B,,2"^Alt paa den vilde Hededer gik Marias Søn,da mødte ham den lede,som Morgenstjærnen skøn.Er du Guds Søn, den rene,og dog i Hungersnød,da sig til disse Stene:Bliv I til Hvedebrød!Ham svared brat den milde:Tal ej om Hungersnød!Guds Mund er Livets Kilde,Guds Ord er Livets Brød.Er du Guds Søn, den bolde,da styrt dig trøstig ud!For dig jo bærer Skjoldeen Engleskare prud.Vor Herre al Ting vidste,han svared: hvor det gaar,du skal din Gud ej friste,det ogsaa skrevet staar." D,2 A,,2 F,,2 | %6
w: mød- te ham den|
 (G,,2 B,,2)"^15.16.17.19." D,2"^Da hviskede den lede,alt, hvad du ser, er mit,men vil du mig tilbede,velan, det alt er dit!Nu fik han Svar i Vrede:Fy, Satan, pak dig bort!Kun Gud maa du tilbede,det Bud er klart og kort.Det var den gamle Slange,som sov i Kains Barm,han daarede saa mange,men fik nu Spot og Harm.Guds Engle Herren loved,kom, lad os juble med!Thi knust er Slangens Hovedaf Jesus, Kvindens Sæd!                  N.F.S. Grundtvig                  (Sangværk til den danske Kirke II (1870))" B,,2 | %7
w: le- * de, som|
 E,2 C,2 A,,2 B,,2 | (C,2 A,,2"^rev.1(11/06)" !fermata!E,2) |] %9
w: Mor- gen- stjær- nen|skøn. _ _|

